packages/amis-ui/src/icons/function.svg

<?xml version="1.0" encoding="UTF-8"?>
<svg viewBox="0 0 16 16" version="1.1" xmlns="http://www.w3.org/2000/svg"
    xmlns:xlink="http://www.w3.org/1999/xlink">
    <path
        d="M6.85458095,1.4369501 C7.71952092,0.883033689 9.14623722,0.984136878 9.82754043,1.06050205 C10.1144049,1.09276903 10.7457242,1.15084958 10.6805277,1.77252664 C10.6294571,2.26943806 9.89599674,2.21888646 9.7014939,2.21888646 C9.48535769,2.21888646 9.2659886,2.19876183 9.04755999,2.18089337 L8.82959943,2.1646059 C7.92402473,2.10678268 7.05892911,2.21764793 6.53620481,4.11618461 L6.21348223,5.68866187 L7.84556744,5.68866187 C8.14547125,5.68866187 8.38887144,5.92958862 8.38887144,6.22644479 C8.38887144,6.52330096 8.14547125,6.76422771 7.84556744,6.76422771 L5.98203473,6.76422771 L4.51511393,13.8963048 C4.51511393,13.8963048 4.37385489,15.042858 3.66212666,14.9987598 C3.63797714,14.9972618 3.61487053,14.9948005 3.5927662,14.9914342 C3.56428372,14.9965963 3.53191413,15 3.49937138,15 L1.46666667,15 C1.20893378,15 1,14.7910662 1,14.5333333 L1,14.5005208 C0.999354255,14.259116 1.18292475,14.0570646 1.42329087,14.0346853 C1.93951851,13.9857578 2.38825526,13.9043655 2.76950112,13.7905085 C2.88970413,13.7546105 2.99265144,13.7126424 3.07834304,13.6646043 C3.13612492,13.6324776 3.19778289,13.6139204 3.25964158,13.6078865 L4.67484531,6.76422771 L2.46685786,6.76422771 C2.18325317,6.76422771 1.95723871,6.54696341 1.93333333,6.27269412 L1.945,6.342 L1.95324336,6.32324571 C1.96746558,6.3067537 1.99022114,6.29312987 1.99875447,6.27376968 C1.98595447,6.2576362 1.94115447,6.24365384 1.94115447,6.22644479 L1.941,6.319 L1.93333333,6.27269412 C1.95524659,5.81127637 2.14698763,5.70504184 2.39724012,5.69054037 L2.46685786,5.68866187 L4.90846603,5.68866187 L5.24857433,4.08391763 C5.48980131,2.9481201 5.98746777,1.99301764 6.85458095,1.4369501 Z M14.7335755,5.87796146 C14.9009132,5.96723342 14.9878418,6.07048774 14.9987079,6.18664885 C15.0084874,6.30280996 14.9628498,6.41681994 14.8585355,6.52975435 L12.8950348,8.6378634 L14.8324569,11.2676219 C14.8933069,11.3461382 14.9085194,11.440788 14.873748,11.5440423 C14.8433229,11.6494478 14.7064103,11.7225862 14.5249468,11.8193872 C14.3282708,11.9215659 14.1576733,11.9118858 14.0359732,11.8785433 C13.9175329,11.8441252 13.8110453,11.7666844 13.7219435,11.6494478 L12.0876851,9.50907173 L10.1046255,11.6386921 C9.86774493,11.8925256 9.59935275,11.9301704 9.2929293,11.7505509 C9.16688277,11.6774125 8.93652187,11.4063699 8.90935667,11.2837554 C8.88327808,11.1622164 8.93217544,11.0342241 9.05822197,10.8976272 L11.2509969,8.53568465 L9.65368315,6.44370909 C9.58740006,6.34798373 9.58088042,6.23612488 9.6330376,6.10920811 C9.68302157,5.98229134 9.80146184,5.90700173 9.92750837,5.83278769 C10.1089719,5.7316845 10.2752229,5.7284578 10.3980096,5.7381379 C10.5218829,5.74566686 10.6338036,5.81557864 10.7370313,5.94464654 L12.0648663,7.65802292 L13.6719595,5.92528635 C13.8110453,5.772556 13.9686035,5.71877771 14.1207286,5.67575508 C14.2717671,5.63273244 14.5705843,5.78761392 14.7335755,5.87796146 Z"
        fill="currentColor" fill-rule="nonzero"></path>
</svg>

<svg viewBox="0 0 16 16" xmlns="http://www.w3.org/2000/svg"><path d="M6.855 1.437C7.72.883 9.146.984 9.828 1.061c.286.032.918.09.853.712-.052.496-.785.446-.98.446-.216 0-.435-.02-.653-.038l-.218-.016c-.906-.058-1.771.053-2.294 1.951L6.213 5.69h1.633c.3 0 .543.24.543.537a.54.54 0 0 1-.543.538H5.982l-1.467 7.132S4.374 15.043 3.662 15a.782.782 0 0 1-.07-.008A.533.533 0 0 1 3.5 15H1.467A.467.467 0 0 1 1 14.533v-.032c0-.242.183-.444.423-.466.517-.05.965-.13 1.347-.244.12-.036.223-.078.308-.126a.465.465 0 0 1 .182-.057l1.415-6.844H2.467a.535.535 0 0 1-.534-.491l.012.069.008-.019c.014-.016.037-.03.046-.05-.013-.015-.058-.03-.058-.047v.093l-.008-.046c.022-.462.214-.568.464-.582l.07-.002h2.441l.34-1.605c.242-1.136.74-2.091 1.607-2.647Zm7.879 4.441c.167.09.254.192.265.309.01.116-.036.23-.14.343l-1.964 2.108 1.937 2.63a.282.282 0 0 1 .042.276c-.03.105-.168.179-.35.275a.656.656 0 0 1-.488.06.613.613 0 0 1-.314-.23l-1.634-2.14-1.983 2.13c-.237.254-.506.291-.812.112-.126-.074-.356-.345-.384-.467-.026-.122.023-.25.15-.386l2.192-2.362-1.597-2.092c-.067-.096-.073-.208-.021-.335.05-.127.168-.202.295-.276a.798.798 0 0 1 .47-.095c.124.008.236.078.339.207l1.328 1.713 1.607-1.733c.139-.152.297-.206.449-.25.15-.042.45.113.613.203Z" fill="currentColor"/></svg>
